img/menu-burger.svg

<svg width="28" height="26" viewBox="0 0 28 26" fill="none" xmlns="http://www.w3.org/2000/svg">
<path d="M1 5.25H27C27.5 5.25 28 4.8125 28 4.25V1.75C28 1.25 27.5 0.75 27 0.75H1C0.4375 0.75 0 1.25 0 1.75V4.25C0 4.8125 0.4375 5.25 1 5.25ZM1 15.25H27C27.5 15.25 28 14.8125 28 14.25V11.75C28 11.25 27.5 10.75 27 10.75H1C0.4375 10.75 0 11.25 0 11.75V14.25C0 14.8125 0.4375 15.25 1 15.25ZM1 25.25H27C27.5 25.25 28 24.8125 28 24.25V21.75C28 21.25 27.5 20.75 27 20.75H1C0.4375 20.75 0 21.25 0 21.75V24.25C0 24.8125 0.4375 25.25 1 25.25Z" fill="#FFBF50"/>
</svg>

<svg width="28" height="26" fill="none" xmlns="http://www.w3.org/2000/svg"><path d="M1 5.25h26c.5 0 1-.438 1-1v-2.5c0-.5-.5-1-1-1H1c-.563 0-1 .5-1 1v2.5c0 .563.438 1 1 1zm0 10h26c.5 0 1-.438 1-1v-2.5c0-.5-.5-1-1-1H1c-.563 0-1 .5-1 1v2.5c0 .563.438 1 1 1zm0 10h26c.5 0 1-.438 1-1v-2.5c0-.5-.5-1-1-1H1c-.563 0-1 .5-1 1v2.5c0 .563.438 1 1 1z" fill="#FFBF50"/></svg>
